X:98
T:Cotton-Eyed Joe
C:Bobby Osborne transcription from Chubby Wise recording
N:Transcribed by Fred Keller
R:bluegrass
L:1/8
Q:1/4=120
M:4/4
K:A
z8 | [ee][ee] [ee][ee] [e2e2] ee | ea fe c2 cA | cB Ac BA FE | AB AF E4 | [ec][ee] [ee][ee] [e2e2] ee | 
ea fe Bc cA | cB Ac BA FE | AB AF E4 | =C^C CA FA AA | BA BA Bc cc | =C^C CA EF AB | 
cB AF E4 | =C^C CA FA AA | BA BA [ec][ec] [ec][ec] | =C^C CA FA Ac | BA F2 E4 | 
[ec][ee] [ee][ee] [e2e2] [e2e2] | ec ee Bc cB | cB Ac BA FE | AB AF E4 | ce ee e2 ee | 
ea fe Bc cB | cB Ac BA FE | AB AF E4 | =C^C CA FA AA | BA BA Bc cA | =C^C CE A2 AB | 
cB AF E4 | =C^C CA FA AA | BA BA [e2c2] [ec]A | cB Ac BA FD | EF AB [e4A4] | 


